X: 170
T: Song qinglang
L: 1/8
M: 2/4
K: F
d f c c [I:setbarnb 1]| 
d f c c | 
d f c A | 
G2G2 | 
G Gc2 | 
G A/ G/ F E | 
G G F D | 
C2C2 | 
F DF2 | 
G c G c | 
G c G F | 
E2E2 | 
G G c c | 
f f d c | 
F/ F/ B/ A/G2 | 
F D F D | 
C2C2 |]

@@@ Tune index: 9044
